Numix-Light-GalliumOS/16/panel/kazam-paused.svg

<?xml version="1.0" encoding="UTF-8" standalone="no"?>
<!-- Created with Inkscape (http://www.inkscape.org/) -->

<svg
   xmlns:dc="http://purl.org/dc/elements/1.1/"
   xmlns:cc="http://creativecommons.org/ns#"
   xmlns:rdf="http://www.w3.org/1999/02/22-rdf-syntax-ns#"
   xmlns:svg="http://www.w3.org/2000/svg"
   xmlns="http://www.w3.org/2000/svg"
   xmlns:sodipodi="http://sodipodi.sourceforge.net/DTD/sodipodi-0.dtd"
   xmlns:inkscape="http://www.inkscape.org/namespaces/inkscape"
   id="svg2"
   version="1.1"
   inkscape:version="0.91 r"
   width="16"
   height="16"
   viewBox="0 0 16 16"
   sodipodi:docname="kazam-paused.svg">
  <metadata
     id="metadata8">
    <rdf:RDF>
      <cc:Work
         rdf:about="">
        <dc:format>image/svg+xml</dc:format>
        <dc:type
           rdf:resource="http://purl.org/dc/dcmitype/StillImage" />
        <dc:title />
      </cc:Work>
    </rdf:RDF>
  </metadata>
  <defs
     id="defs6" />
  <sodipodi:namedview
     pagecolor="#ffffff"
     bordercolor="#666666"
     borderopacity="1"
     objecttolerance="10"
     gridtolerance="10"
     guidetolerance="10"
     inkscape:pageopacity="0"
     inkscape:pageshadow="2"
     inkscape:window-width="1366"
     inkscape:window-height="747"
     id="namedview4"
     showgrid="true"
     inkscape:zoom="10.727273"
     inkscape:cx="-4.5779869"
     inkscape:cy="15.963622"
     inkscape:window-x="0"
     inkscape:window-y="21"
     inkscape:window-maximized="1"
     inkscape:current-layer="svg2">
    <inkscape:grid
       type="xygrid"
       id="grid4138" />
  </sodipodi:namedview>
  <path
     style="color:#000000;font-style:normal;font-variant:normal;font-weight:normal;font-stretch:normal;font-size:medium;line-height:normal;font-family:sans-serif;text-indent:0;text-align:start;text-decoration:none;text-decoration-line:none;text-decoration-style:solid;text-decoration-color:#000000;letter-spacing:normal;word-spacing:normal;text-transform:none;direction:ltr;block-progression:tb;writing-mode:lr-tb;baseline-shift:baseline;text-anchor:start;white-space:normal;clip-rule:nonzero;display:inline;overflow:visible;visibility:visible;opacity:1;isolation:auto;mix-blend-mode:normal;color-interpolation:sRGB;color-interpolation-filters:linearRGB;solid-color:#000000;solid-opacity:1;fill:#353535;fill-opacity:1;fill-rule:evenodd;stroke:none;stroke-width:1;stroke-linecap:butt;stroke-linejoin:round;stroke-miterlimit:4;stroke-dasharray:none;stroke-dashoffset:0;stroke-opacity:1;color-rendering:auto;image-rendering:auto;shape-rendering:auto;text-rendering:auto;enable-background:accumulate"
     d="M 1.45457,2.90911 C 1.2537483,2.9091301 1.0909551,3.0719233 1.090935,3.272745 l 0,9.45451 c 2.01e-5,0.200822 0.1628133,0.363615 0.363635,0.363635 l 8.72724,0 c 0.200822,-2e-5 0.363615,-0.162813 0.363635,-0.363635 l 0,-2.321014 3.838054,1.919027 c 0.241613,0.120118 0.525295,-0.05546 0.525566,-0.325283 l 0,-7.99997 C 14.908794,3.7301911 14.625112,3.5546151 14.383499,3.6747322 l -3.838054,1.9190268 0,-2.321014 C 10.545425,3.0719233 10.382632,2.9091301 10.18181,2.90911 l -8.72724,0 z m 2.4531158,2.90908 0.9119284,0 C 4.9695358,5.8180896 5.0910688,5.900187 5.09092,6.0014279 l 0,3.9985646 C 5.0901996,10.100818 4.9689213,10.181911 4.8196142,10.18181 l -0.9119284,0 C 3.7583787,10.181911 3.6371005,10.100818 3.63638,9.9999925 l 0,-3.9985646 C 3.6362312,5.9001868 3.7577641,5.8180896 3.9076858,5.81819 Z m 2.9090802,0 0.911928,0 C 7.878616,5.8180896 8.000148,5.900187 8,6.0014279 L 8,9.9999925 C 7.999279,10.100818 7.878001,10.181911 7.728694,10.18181 l -0.911928,0 C 6.667459,10.181911 6.546181,10.100818 6.54546,9.9999925 l 0,-3.9985646 C 6.545311,5.9001868 6.666844,5.8180895 6.816766,5.81819 Z"
     id="path4140"
     inkscape:connector-curvature="0" />
</svg>

<svg xmlns="http://www.w3.org/2000/svg" viewBox="0 0 16 16">
 <path d="m 1.455 2.909 c -0.201 0 -0.364 0.163 -0.364 0.364 l 0 9.455 c 0 0.201 0.163 0.364 0.364 0.364 l 8.727 0 c 0.201 0 0.364 -0.163 0.364 -0.364 l 0 -2.321 3.838 1.919 c 0.242 0.12 0.525 -0.055 0.526 -0.325 l 0 -8 c 0 -0.27 -0.284 -0.445 -0.526 -0.325 l -3.838 1.919 0 -2.321 c 0 -0.201 -0.163 -0.364 -0.364 -0.364 l -8.727 0 z m 2.453 2.909 0.912 0 c 0.15 0 0.271 0.082 0.271 0.183 l 0 3.999 c -0.001 0.101 -0.122 0.182 -0.271 0.182 l -0.912 0 c -0.149 0 -0.271 -0.081 -0.271 -0.182 l 0 -3.999 c 0 -0.101 0.121 -0.183 0.271 -0.183 m 2.909 0 0.912 0 c 0.15 0 0.271 0.082 0.271 0.183 l 0 3.999 c -0.001 0.101 -0.122 0.182 -0.271 0.182 l -0.912 0 c -0.149 0 -0.271 -0.081 -0.271 -0.182 l 0 -3.999 c 0 -0.101 0.121 -0.183 0.271 -0.183" mix-blend-mode="normal" isolation="auto" white-space="normal" solid-opacity="1" solid-color="#000000" style="visibility:visible;shape-rendering:auto;color-interpolation-filters:linearRGB;fill:#353535;opacity:1;image-rendering:auto;fill-opacity:1;stroke:none;display:inline;color:#000;fill-rule:evenodd;color-rendering:auto;color-interpolation:sRGB"/>
</svg>
